X:3140
T:Off to California 
M:C
K:G
(3DEF|\
GFGB AGED|GBdg e2 (3def|gfgd edBG|ABAG E2(3DEF|
GFGB AGED|GBdg e2 (3def|gfgd edBG|(3ABA GF G2:|
|:gfeg fedf|edef edB2|gfgd edBG|ABAG E2(3DEF|
GFGB AGED|GBdg e2 (3def|gfgd edBG|(3ABA GF G2:|
